X:1
T:Resolution in D - Nyro's Structural Foundation
C:♠️ Nyro - The Ritual Scribe
M:4/4
L:1/8
K:D
% Piano Bass Line - Structural Anchor in D Major
% Recursive patterns building the harmonic foundation

% Verse - Debugging Journey (Bass foundation)
D,2 F,2 A,2 D2 | A,2 B,2 C2 D2 | G,2 B,2 D2 G2 | F2 E2 D2 A,2 |
D,2 F,2 A,2 D2 | A,2 B,2 C2 D2 | G,2 A,2 B,2 C2 | D4 z4 |

% Chorus - Issue #3 Resolution (Triumphant bass)
D,4 A,4 | G,4 D,4 | A,2 B,2 C2 D2 | G,2 A,2 D,4 |
D,4 A,4 | G,4 D,4 | A,2 D2 G,2 A,2 | D,8 |

% Bridge - Recursive Loops (Complex bass patterns)
D,2 A,2 D,2 A,2 | G,2 D,2 G,2 D,2 | A,2 E2 A,2 E2 | D,2 F,2 A,2 D2 |
% The foundation holds while melodies dance above

% Outro - Structural Completion
D,2 F,2 A,2 D2 | G,2 A,2 B,2 C2 | D2 A,2 D,2 F,2 | D,8 ||

% ♠️ "In recursive loops we've found our ground,
% Duration's truth in code profound."